X: 16732
T: Hard Is My Fate
R: reel
M: 4/4
K: Gmajor
GA|:B2 D2 D2 B2|BAAG G2 GA|B2 E2 E2 A2|GFED D2 GA|
B2 D2 D2 B2|BAAG G2 GA|B3E F/G/ AA F|1 G6 GA:|2 G6 B,C||
D3B, G3A|BGDB, C2 CB,|A,3B, C3E|EDDC B,2 Bc|
d3B g3f|edcB c2 cd|e3d d3F|G6 B,C|
D3B, G3A|B/A/G/F/ E/D/C/B,/ C2 CB,|A,3B, C3E|EDDC B,2 Bc|
d3B g3f|edcB c2 cd|e3d d3F|G6||

